app/assets/images/icons/active/plane.svg

<?xml version="1.0" encoding="UTF-8" standalone="no"?>
<svg width="32px" height="232px" viewBox="0 0 32 232" version="1.1" xmlns="http://www.w3.org/2000/svg" xmlns:xlink="http://www.w3.org/1999/xlink" xmlns:sketch="http://www.bohemiancoding.com/sketch/ns">
    <title>plane</title>
    <description>Created with Sketch (http://www.bohemiancoding.com/sketch)</description>
    <defs></defs>
    <g id="Transport" stroke="none" stroke-width="1" fill="none" fill-rule="evenodd" sketch:type="MSPage">
        <path d="M17.9965,136.748 L17.9965,142.178 C17.9965,142.36 17.9675,142.532 17.9205,142.696 L21.0685,145.576 C21.3425,145.846 21.4885,146.192 21.4945,146.565 C21.4945,146.944 21.3475,147.297 21.0845,147.569 C20.7915,147.85 20.4395,148 20.0585,148 C19.7465,148 19.4205,147.899 19.1255,147.702 L16.0045,145.715 L12.8515,147.623 C12.5955,147.848 12.2615,147.975 11.9125,147.975 C11.5475,147.975 11.1955,147.834 10.9335,147.578 C10.6565,147.299 10.5115,146.944 10.5135,146.565 C10.5175,146.192 10.6645,145.846 10.9295,145.59 L14.0645,142.715 C14.0155,142.545 13.9845,142.365 13.9845,142.178 L13.9845,136.756 L6.9535,140.537 C5.6745,141.106 4.8245,141.24 4.0625,140.483 C3.3125,139.721 3.3125,138.491 4.0625,137.721 L13.9845,129.557 L13.9845,125.77 C13.9845,124.665 14.8835,123.762 15.9965,123.762 C17.0995,123.768 17.9965,124.665 17.9965,125.77 L17.9965,129.547 L27.9315,137.721 C28.6895,138.491 28.6895,139.721 27.9315,140.483 C27.1735,141.24 26.3225,141.106 25.0435,140.537 L17.9965,136.748 Z M17.9965,136.748" id="plane--white" fill="#206FAC" sketch:type="MSShapeGroup"></path>
        <path d="M17.9965,96.748 L17.9965,102.178 C17.9965,102.36 17.9675,102.532 17.9205,102.696 L21.0685,105.576 C21.3425,105.846 21.4885,106.192 21.4945,106.565 C21.4945,106.944 21.3475,107.297 21.0845,107.569 C20.7915,107.85 20.4395,108 20.0585,108 C19.7465,108 19.4205,107.899 19.1255,107.702 L16.0045,105.715 L12.8515,107.623 C12.5955,107.848 12.2615,107.975 11.9125,107.975 C11.5475,107.975 11.1955,107.834 10.9335,107.578 C10.6565,107.299 10.5115,106.944 10.5135,106.565 C10.5175,106.192 10.6645,105.846 10.9295,105.59 L14.0645,102.715 C14.0155,102.545 13.9845,102.365 13.9845,102.178 L13.9845,96.756 L6.9535,100.537 C5.6745,101.106 4.8245,101.24 4.0625,100.483 C3.3125,99.721 3.3125,98.491 4.0625,97.721 L13.9845,89.557 L13.9845,85.77 C13.9845,84.665 14.8835,83.762 15.9965,83.762 C17.0995,83.768 17.9965,84.665 17.9965,85.77 L17.9965,89.547 L27.9315,97.721 C28.6895,98.491 28.6895,99.721 27.9315,100.483 C27.1735,101.24 26.3225,101.106 25.0435,100.537 L17.9965,96.748 Z M17.9965,96.748" id="plane--subdued-grey" fill="#FFFFFF" sketch:type="MSShapeGroup"></path>
        <path d="M17.9965,56.748 L17.9965,62.178 C17.9965,62.36 17.9675,62.532 17.9205,62.696 L21.0685,65.576 C21.3425,65.846 21.4885,66.192 21.4945,66.565 C21.4945,66.944 21.3475,67.297 21.0845,67.569 C20.7915,67.85 20.4395,68 20.0585,68 C19.7465,68 19.4205,67.899 19.1255,67.702 L16.0045,65.715 L12.8515,67.623 C12.5955,67.848 12.2615,67.975 11.9125,67.975 C11.5475,67.975 11.1955,67.834 10.9335,67.578 C10.6565,67.299 10.5115,66.944 10.5135,66.565 C10.5175,66.192 10.6645,65.846 10.9295,65.59 L14.0645,62.715 C14.0155,62.545 13.9845,62.365 13.9845,62.178 L13.9845,56.756 L6.9535,60.537 C5.6745,61.106 4.8245,61.24 4.0625,60.483 C3.3125,59.721 3.3125,58.491 4.0625,57.721 L13.9845,49.557 L13.9845,45.77 C13.9845,44.665 14.8835,43.762 15.9965,43.762 C17.0995,43.768 17.9965,44.665 17.9965,45.77 L17.9965,49.547 L27.9315,57.721 C28.6895,58.491 28.6895,59.721 27.9315,60.483 C27.1735,61.24 26.3225,61.106 25.0435,60.537 L17.9965,56.748 Z M17.9965,56.748" id="plane--body-grey" fill="#67737B" sketch:type="MSShapeGroup"></path>
        <path d="M17.9965,16.748 L17.9965,22.178 C17.9965,22.36 17.9675,22.532 17.9205,22.696 L21.0685,25.576 C21.3425,25.846 21.4885,26.192 21.4945,26.565 C21.4945,26.944 21.3475,27.297 21.0845,27.569 C20.7915,27.85 20.4395,28 20.0585,28 C19.7465,28 19.4205,27.899 19.1255,27.702 L16.0045,25.715 L12.8515,27.623 C12.5955,27.848 12.2615,27.975 11.9125,27.975 C11.5475,27.975 11.1955,27.834 10.9335,27.578 C10.6565,27.299 10.5115,26.944 10.5135,26.565 C10.5175,26.192 10.6645,25.846 10.9295,25.59 L14.0645,22.715 C14.0155,22.545 13.9845,22.365 13.9845,22.178 L13.9845,16.756 L6.9535,20.537 C5.6745,21.106 4.8245,21.24 4.0625,20.483 C3.3125,19.721 3.3125,18.491 4.0625,17.721 L13.9845,9.557 L13.9845,5.77 C13.9845,4.665 14.8835,3.762 15.9965,3.762 C17.0995,3.768 17.9965,4.665 17.9965,5.77 L17.9965,9.547 L27.9315,17.721 C28.6895,18.491 28.6895,19.721 27.9315,20.483 C27.1735,21.24 26.3225,21.106 25.0435,20.537 L17.9965,16.748 Z M17.9965,16.748" id="plane--title-grey" fill="#3A434E" sketch:type="MSShapeGroup"></path>
    </g>
</svg>

<svg width="32" height="232" viewBox="0 0 32 232" xmlns="http://www.w3.org/2000/svg" xmlns:sketch="http://www.bohemiancoding.com/sketch/ns"><title>plane</title><g sketch:type="MSPage" fill="none"><path d="M17.997 136.748v5.43c0 .182-.029.354-.076.518l3.148 2.88c.274.27.42.616.426.989 0 .379-.147.732-.41 1.004-.293.281-.645.431-1.026.431-.312 0-.638-.101-.933-.298l-3.121-1.987-3.153 1.908c-.256.225-.59.352-.939.352-.365 0-.717-.141-.979-.397-.277-.279-.422-.634-.42-1.013.004-.373.151-.719.416-.975l3.135-2.875c-.049-.17-.08-.35-.08-.537v-5.422l-7.031 3.781c-1.279.569-2.129.703-2.891-.054-.75-.762-.75-1.992 0-2.762l9.922-8.164v-3.787c0-1.105.899-2.008 2.012-2.008 1.103.006 2 .903 2 2.008v3.777l9.935 8.174c.758.77.758 2 0 2.762-.758.757-1.609.623-2.888.054l-7.047-3.789zm0 0" fill="#206FAC" sketch:type="MSShapeGroup"/><path d="M17.997 96.748v5.43c0 .182-.029.354-.076.518l3.148 2.88c.274.27.42.616.426.989 0 .379-.147.732-.41 1.004-.293.281-.645.431-1.026.431-.312 0-.638-.101-.933-.298l-3.121-1.987-3.153 1.908c-.256.225-.59.352-.939.352-.365 0-.717-.141-.979-.397-.277-.279-.422-.634-.42-1.013.004-.373.151-.719.416-.975l3.135-2.875c-.049-.17-.08-.35-.08-.537v-5.422l-7.031 3.781c-1.279.569-2.129.703-2.891-.054-.75-.762-.75-1.992 0-2.762l9.922-8.164v-3.787c0-1.105.899-2.008 2.012-2.008 1.103.006 2 .903 2 2.008v3.777l9.935 8.174c.758.77.758 2 0 2.762-.758.757-1.609.623-2.888.054l-7.047-3.789zm0 0" fill="#fff" sketch:type="MSShapeGroup"/><path d="M17.997 56.748v5.43c0 .182-.029.354-.076.518l3.148 2.88c.274.27.42.616.426.989 0 .379-.147.732-.41 1.004-.293.281-.645.431-1.026.431-.312 0-.638-.101-.933-.298l-3.121-1.987-3.153 1.908c-.256.225-.59.352-.939.352-.365 0-.717-.141-.979-.397-.277-.279-.422-.634-.42-1.013.004-.373.151-.719.416-.975l3.135-2.875c-.049-.17-.08-.35-.08-.537v-5.422l-7.031 3.781c-1.279.569-2.129.703-2.891-.054-.75-.762-.75-1.992 0-2.762l9.922-8.164v-3.787c0-1.105.899-2.008 2.012-2.008 1.103.006 2 .903 2 2.008v3.777l9.935 8.174c.758.77.758 2 0 2.762-.758.757-1.609.623-2.888.054l-7.047-3.789zm0 0" fill="#67737B" sketch:type="MSShapeGroup"/><path d="M17.997 16.748v5.43c0 .182-.029.354-.076.518l3.148 2.88c.274.27.42.616.426.989 0 .379-.147.732-.41 1.004-.293.281-.645.431-1.026.431-.312 0-.638-.101-.933-.298l-3.121-1.987-3.153 1.908c-.256.225-.59.352-.939.352-.365 0-.717-.141-.979-.397-.277-.279-.422-.634-.42-1.013.004-.373.151-.719.416-.975l3.135-2.875c-.049-.17-.08-.35-.08-.537v-5.422l-7.031 3.781c-1.279.569-2.129.703-2.891-.054-.75-.762-.75-1.992 0-2.762l9.922-8.164v-3.787c0-1.105.899-2.008 2.012-2.008 1.103.006 2 .903 2 2.008v3.777l9.935 8.174c.758.77.758 2 0 2.762-.758.757-1.609.623-2.888.054l-7.047-3.789zm0 0" fill="#3A434E" sketch:type="MSShapeGroup"/></g></svg>
